!!!OTL: GUTE NACHT
!!!ARE: Europa, Mitteleuropa, Deutschland
!!!SCT: F0741
!!!YEM: Copyright 1995, estate of Helmut Schaffrath.
**kern
*ICvox
*Ivox
*M4/4
*k[f#]
*G:
{4d
4d
=1
2g
4f#
4f#
=2
2e}
{4d
4g
=3
4e
4e
4d
4c
=4
2B}
{4A
4d
=5
8B
8c#
8d
8e
4f#
8.e
16f#
=6
4e
4d}
{4d
4d
=7
8g
8B
8e
8d
4f#
4g
=8
4f#
4d}
{4g
4f#
=9
4e
4d
4c
4B
=10
2A}
{4A
4A
=11
2d
4d
4d
=12
2d}
==
!!!AGN: Geselligkeits -, Tageszeiten - Lied, Abend
!!!ONB: ESAC (Essen Associative Code) Database: FINK
!!!AMT: simple quadruple
!!!AIN: vox
!!!EED: Helmut Schaffrath
!!!EEV: 1.0
*-
